packages/tokens/icons/map2/size32Px.svg

<svg viewBox="0 0 32 32" fill="none" xmlns="http://www.w3.org/2000/svg" width="1em" height="1em"><path d="M25.5 8.5H27.5C28.6046 8.5 29.5 9.39543 29.5 10.5V26.5C29.5 27.6046 28.6046 28.5 27.5 28.5H4.5C3.39543 28.5 2.5 27.6046 2.5 26.5L2.5 10.5C2.5 9.39543 3.39543 8.5 4.5 8.5H11.5" stroke="currentColor" stroke-linecap="round"/><path d="M2.5 10.9262L7.2729 15.7863C7.65992 16.1804 7.65413 16.8137 7.25998 17.2006L2.5 21.8736M7.37395 8.5L20.0188 21.1447C20.4177 21.5437 21.0675 21.5338 21.4541 21.123L29.5 12.5736M29.5 18.2157L24.0861 23.793C23.7054 24.1852 23.7101 24.8102 24.0965 25.1967L27.3998 28.4999M2.5 26.4999L10.1154 19.1738C10.5054 18.7986 11.1231 18.8017 11.5093 19.1809L21 28.4999" stroke="currentColor" stroke-linecap="round" stroke-linejoin="round"/><path d="M22.5 7.82759C22.5 8.87493 21.9428 10.3362 21.1721 11.8283C20.4136 13.297 19.4939 14.7116 18.8568 15.6381C18.6787 15.8971 18.3213 15.8971 18.1432 15.6381C17.5061 14.7116 16.5864 13.297 15.8279 11.8283C15.0572 10.3362 14.5 8.87493 14.5 7.82759C14.5 6.62153 14.8488 5.53786 15.506 4.76452C16.1539 4.00212 17.1354 3.5 18.5 3.5C19.8646 3.5 20.8461 4.00212 21.494 4.76452C22.1512 5.53786 22.5 6.62153 22.5 7.82759Z" stroke="currentColor"/><path d="M20 7.5C20 8.32843 19.3284 9 18.5 9C17.6716 9 17 8.32843 17 7.5C17 6.67157 17.6716 6 18.5 6C19.3284 6 20 6.67157 20 7.5Z" stroke="currentColor"/></svg>

<svg xmlns="http://www.w3.org/2000/svg" fill="none" viewBox="0 0 32 32" width="1em" height="1em"><path stroke="currentColor" stroke-linecap="round" d="M25.5 8.5h2a2 2 0 0 1 2 2v16a2 2 0 0 1-2 2h-23a2 2 0 0 1-2-2v-16a2 2 0 0 1 2-2h7"/><path stroke="currentColor" stroke-linecap="round" stroke-linejoin="round" d="m2.5 10.926 4.773 4.86a1 1 0 0 1-.013 1.415L2.5 21.874M7.374 8.5l12.645 12.645a1 1 0 0 0 1.435-.022l8.046-8.55m0 5.643-5.414 5.577a1 1 0 0 0 .01 1.404L27.4 28.5m-24.9-2 7.615-7.326a1 1 0 0 1 1.394.007L21 28.5"/><path stroke="currentColor" d="M22.5 7.828c0 1.047-.557 2.508-1.328 4-.758 1.469-1.678 2.884-2.315 3.81a.425.425 0 0 1-.714 0c-.637-.926-1.557-2.341-2.315-3.81-.77-1.492-1.328-2.953-1.328-4 0-1.206.349-2.29 1.006-3.063.648-.763 1.63-1.265 2.994-1.265 1.365 0 2.346.502 2.994 1.265.657.773 1.006 1.857 1.006 3.063Z"/><path stroke="currentColor" d="M20 7.5a1.5 1.5 0 1 1-3 0 1.5 1.5 0 0 1 3 0Z"/></svg>
